X:537
T:Dark girl
R:Polka
O:Ireland
D:Denis Murphy and Julia Clifford ?
B:Music from Ireland Vol. 3
S:My arrangement from various sources
Z:Transcription, arrangement, chords:Mike Long
M:2/4
L:1/16
K:D
DE|:\
"D"F2A2 A2d2|"G"B2d2 "D"A3F|"G"G2B2 "D"A2FA|"A"B2E2 GFED|\
"D"F2A2 A2d2|"G"BcdB "D"ABAF|
"G"G2B2 "A"ABAG|"D"F2D2 D3E:|\
|:"D"F2A2 ABde|"D"fefd "A"e3d|"G"B2dB "D"ADFA|
"A"B2E2 GFED|\
"D"F2A2 ABde|"D"fefd "A"e3d|"G"B2dB "A"ABAG|"D"F2D2 D3E:|
